X:62
T:Kill Delly ofle's
R:polka
H:Also played in A, #6
D:Wolka #21
Z:id:hn-polka-73
M:2/4
L:1/8
K:D
AG/F/ GE|DF AF|ED ED|ED D/F/F/D/|EE G2|D2 DE|G2 B/:|c A B|AG FD|GB/d/ ec|dB cB|AB cB|AD Ad|e
====== T = 1, seed = 1 ======
<start>
